img/social/logo-fsf.org.svg

<svg height="395.219pt" viewBox="0 0 3390.47 395.219" width="3390.47pt" xmlns="http://www.w3.org/2000/svg"><g fill="#b11107" stroke="none" transform="matrix(.999952 0 0 .999952 .000024 .018683)"><path d="m86.4 193.619h-86.4v-64.8h86.4v-50.4h-14.4v-36h14.4v-14.4h36v14.4h216c59.668-31.267 129.702-37.338 190.235-38.083 66.813-.858 70.275-.107 97.53.088 115.368.859 123.32 1.368 139.603-1.201 6.564-1.081 13.763 3.26 14.332 6.495 1.323 7.172-13.626 15.478-18.242 16.941-14.351 4.555-40.043 6.616-109.929 10.648l-1.664.034c-110.989 10.48-173.253 36.647-189.343 44.135-63.641 29.703-70.511 43.531-62.237 52.355 8.768 9.358 58.312-11.226 82.607-18.164 48.282-13.774 76.735-.583 94.708 13.152h43.2v-7.2h28.8v7.2h244.8v64.8h-244.8v50.401h208.8v36h-208.8v115.199h-28.8v-115.199h-14.4v-36h14.4v-50.401h-14.4c-.249 25.469-7.709 48.819-14.848 58.438-66.632 89.505-368.868 101.02-462.493 102.548-23.625.405-40.536-3.558-41.059-9.787m167.373-217.567c4.039-16.988 15.325-34.298 28.846-48.704l-158.2.631-.574 49.838 129.117.524.61 1.033m498.383-118.758c-1.645-.819-85.667 3.864-90.391 3.435-4.723-.43-55.339.295-83.09-.43-32.85-.859-67.324.034-99.409 3.006-32.42 3.006-65.914 13.097-93.61 24.691-26.348 11.031-52.604 24.905-73.215 41.223-10.555 8.354-18.579 17.633-25.764 28.986-8.159 12.881-12.092 27.596-6.657 39.935 5.859 13.284 18.962 19.168 35.212 21.685 14.754 2.294 32.85 1.073 44.444 3.435 6.884 1.402 18.183 3.254 18.894 9.877.644 6.011-10.206 16.063-15.244 18.463-9.447 4.51-22.115.645-34.353-1.932-8.435-1.771-20.953-5.878-28.771-9.448-5.279-2.414-10.927-4.32-12.001-4.32-.428 0-165.813-.428-165.6 0 0 2.791-.213 137.56 0 144 .235 7.112 24.778 5.005 39.976 3.529 29.361-2.873 59.902-6.442 89.532-10.735 16.942-2.456 34.897-5.637 51.958-9.019 27.053-5.366 59.401-12.882 72.852-17.177 33.642-10.734 68.424-20.181 100.2-33.922 14.286-6.173 31.347-13.956 42.942-21.901 12.358-8.468 25.549-20.182 31.132-32.205 6.199-13.352 8.097-29.428 1.717-44.015-6.011-13.741-22.544-25.978-36.929-28.341-8.187-1.342-14.6-2.147-22.544-1.503-9.138.738-24.691 4.079-34.997 5.368-16.942 2.12-36.849 5.133-53.462 2.577-11.164-1.719-28.77-16.103-22.544-32.85 4.563-12.279 22.242-24.88 32.85-31.776 25.765-16.748 72.114-31.368 111.862-40.795 33.493-7.943 80.513-14.385 120.234-14.814 3.83-.04 39.713-2.449 43.37-2.577 60.332-2.147 62.264-12.023 61.406-12.452"/><path d="m1076.45 33.923v45.947h76v29.2h-76v89.317h-38.65v-194.951h142.99v30.487z"/><path d="m1341.92 198.387-57.95-80.3c-5.84 0-14.01-.295-24.5-.892v81.192h-39.93v-194.596c2.17 0 10.52-.343 25.06-1.034 14.53-.69 26.26-1.039 35.16-1.039 55.18 0 82.771 19.176 82.771 57.514 0 11.566-3.811 22.087-11.43 31.575-7.63 9.486-17.23 16.162-28.82 20.014l64.3 87.566h-44.66zm-82.45-164.584v54.347c7.15.496 12.61.737 16.38.737 16.18 0 28.01-2.025 35.5-6.084 7.49-4.053 11.24-12.024 11.24-23.907 0-9.594-4.02-16.304-12.06-20.115s-20.69-5.716-37.96-5.716c-4.17 0-8.54.248-13.101.738"/><path d="m1448.22 33.923v45.947h70v29.2h-70v58.828h98.34v30.489h-136.98v-194.951h136.98v30.487z"/><path d="m1625.52 33.923v45.947h69.99v29.2h-69.99v58.828h98.32v30.489h-136.97v-194.951h136.97v30.487z"/><path d="m1849.89 187.732 14.24-30.998c15.23 9.736 30.22 14.6 44.96 14.6 22.65 0 33.98-7.125 33.98-21.39 0-6.629-2.681-12.969-8.021-19.008-5.35-6.038-16.35-12.822-33.02-20.35-16.681-7.528-27.91-13.714-33.69-18.571-5.779-4.858-10.24-10.629-13.35-17.318-3.12-6.69-4.67-14.05-4.67-22.074 0-15.163 6.14-27.724 18.449-37.681 12.302-9.957 28.082-14.942 47.352-14.942 25.1 0 43.52 4.213 55.29 12.634l-11.7 29.878c-13.51-8.589-27.78-12.883-42.771-12.883-8.879 0-15.76 2.107-20.649 6.314-4.88 4.213-7.33 9.682-7.33 16.411 0 11.192 13.76 22.833 41.28 34.91 14.49 6.427 24.949 12.305 31.359 17.639 6.42 5.334 11.301 11.581 14.66 18.747 3.351 7.165 5.03 15.143 5.03 23.932 0 15.809-6.94 28.805-20.82 38.977-13.87 10.177-32.47 15.263-55.78 15.263-20.25 0-38.51-4.694-54.8-14.089"/><path d="m2009.68 99.354c0-27.776 8.471-51.28 25.431-70.51 16.95-19.23 39.609-28.844 67.979-28.844 31.24 0 55.11 8.703 71.62 26.1 16.5 17.404 24.771 41.82 24.771 73.254 0 31.441-8.631 56.374-25.881 74.811-17.25 18.439-41.739 27.657-73.47 27.657-29.16 0-51.53-9.144-67.1-27.435-15.561-18.289-23.351-43.296-23.351-75.033zm39.94.141c0 22.759 4.3 40.425 12.92 52.993 8.61 12.566 21.13 18.846 37.59 18.846 19.31 0 34.03-6.133 44.181-18.404 10.149-12.264 15.239-30.079 15.239-53.435 0-45.718-18.83-68.578-56.46-68.578-17.229 0-30.46 6.187-39.66 18.559-9.21 12.372-13.81 29.045-13.81 50.019"/><path d="m2276.689 33.923v45.947h76.011v29.2h-76.011v89.317h-38.64v-194.951h142.99v30.487h-104.351"/><path d="m2512.8 33.923v164.464h-38.649v-164.464h-69.131v-30.487h179.92v30.487z"/><path d="m2794 200.964h-15.89l-47.24-122.812-45.94 122.812h-15.89l-71.28-197.528h40.36l40.58 117.658 44.01-117.658h16.75l44.021 117.658 40.58-117.658h40.359z"/><path d="m2997.39 198.387-15.79-39.506h-74.319l-15.101 39.506h-42.939l86.74-197.529h16.75l87.17 197.529zm-53.03-137.841-26.13 71.712h52.149l-26.02-71.712"/><path d="m3185.83 198.387-57.94-80.3c-5.85 0-14.01-.295-24.5-.892v81.192h-39.939v-194.596c2.17 0 10.52-.343 25.069-1.034 14.53-.69 26.25-1.039 35.16-1.039 55.17 0 82.771 19.176 82.771 57.514 0 11.566-3.811 22.087-11.44 31.575-7.62 9.486-17.229 16.162-28.81 20.014l64.29 87.566h-44.66zm-82.44-164.584v54.347c7.13.496 12.601.737 16.37.737 16.18 0 28.021-2.025 35.51-6.084 7.48-4.053 11.24-12.024 11.24-23.907 0-9.594-4.029-16.304-12.06-20.115-8.04-3.811-20.7-5.716-37.97-5.716-4.17 0-8.53.248-13.091.738"/><path d="m3292.14 33.923v45.947h69.99v29.2h-69.99v58.828h98.33v30.489h-136.98v-194.951h136.979v30.487h-98.33"/><path d="m1105.12 288.797v31.133h47.67v13.095h-47.67v54.322h-18.46v-112.506h83.74v13.956z"/><path d="m1314.58 330.127c0-16.344 4.93-29.979 14.77-40.955 9.84-10.978 23.12-16.479 39.85-16.479 18.82 0 33.24 5.072 43.27 15.163 10.03 10.119 15.05 24.208 15.05 42.271 0 18.465-5.03 32.957-15.09 43.451-10.06 10.467-24.47 15.699-43.229 15.699-17.1 0-30.48-5.527-40.13-16.586-9.66-11.083-14.49-25.254-14.49-42.564zm19.54-.026c0 12.962 3.06 23.778 9.18 32.447 6.13 8.669 14.76 12.989 25.9 12.989 12.62 0 22.24-3.973 28.85-11.942 6.62-7.945 9.93-19.11 9.93-33.494 0-29.093-12.92-43.666-38.78-43.666-11.44 0-20.15 3.919-26.12 11.729-5.97 7.781-8.96 18.438-8.96 31.937"/><path d="m1583.65 274.841h18.47v77.079c0 6.87 2.62 12.506 7.88 16.962 5.24 4.454 12.19 6.655 20.84 6.655 9.14 0 16.34-2.146 21.59-6.441 5.25-4.268 7.87-10.117 7.87-17.551v-76.704h18.47v78.341c0 11.354-4.27 20.209-12.82 26.57-8.54 6.359-20.18 9.525-34.92 9.525-15.18 0-26.87-3.111-35.07-9.339-8.21-6.226-12.31-15.189-12.31-26.864z"/><path d="m1929.07 388.849-69.99-82.231v80.729h-17.61v-112.506h7.521l68.06 77.722v-77.722h17.601v114.008h-5.58"/><path d="m2124.68 387.347h-27.35v-112.614c17.439-.482 28.59-.751 33.47-.751 18.97 0 33.99 4.777 45.05 14.33 11.07 9.556 16.601 22.305 16.601 38.246 0 40.524-22.601 60.788-67.771 60.788zm-8.88-98.792v84.326c4.13.481 9.271.724 15.39.724 12.98 0 23.171-4.024 30.601-12.104 7.399-8.077 11.12-19.297 11.12-33.655 0-26.73-14.44-40.123-43.3-40.123-1.73 0-6.341.295-13.811.832"/><path d="m2425.55 387.347-9.34-23.619h-50.43l-10.011 23.619h-20.83l55.181-114.009h4.94l51.1 114.009zm-33.82-84.594-21.041 49.597h40.25z"/><path d="m2626.11 288.797v98.55h-18.46v-98.55h-43.16v-13.956h106.71v13.956z"/><path d="m2824.87 274.841h18.47v112.506h-18.47z"/><path d="m3002.78 330.127c0-16.344 4.93-29.979 14.76-40.955 9.85-10.978 23.13-16.479 39.86-16.479 18.81 0 33.239 5.072 43.279 15.163 10.021 10.119 15.04 24.208 15.04 42.271 0 18.465-5.03 32.957-15.1 43.451-10.05 10.467-24.46 15.699-43.22 15.699-17.101 0-30.48-5.527-40.141-16.586-9.649-11.083-14.479-25.254-14.479-42.564zm19.54-.026c0 12.962 3.06 23.778 9.18 32.447 6.13 8.669 14.76 12.989 25.9 12.989 12.609 0 22.229-3.973 28.85-11.942 6.61-7.945 9.93-19.11 9.93-33.494 0-29.093-12.92-43.666-38.779-43.666-11.45 0-20.16 3.919-26.131 11.729-5.97 7.781-8.949 18.438-8.949 31.937"/><path d="m3359.45 388.849-70-82.231v80.729h-17.601v-112.506h7.511l68.06 77.722v-77.722h17.61v114.008z"/></g></svg>

<?xml version="1.0" encoding="UTF-8" standalone="no"?>
<!-- Generator: Adobe Illustrator 9.0, SVG Export Plug-In  -->
<svg
   xmlns:dc="http://purl.org/dc/elements/1.1/"
   xmlns:cc="http://web.resource.org/cc/"
   xmlns:rdf="http://www.w3.org/1999/02/22-rdf-syntax-ns#"
   xmlns:svg="http://www.w3.org/2000/svg"
   xmlns="http://www.w3.org/2000/svg"
   xmlns:sodipodi="http://inkscape.sourceforge.net/DTD/sodipodi-0.dtd"
   xmlns:inkscape="http://www.inkscape.org/namespaces/inkscape"
   width="3390.47pt"
   height="395.219pt"
   viewBox="0 0 3390.47 395.219"
   xml:space="preserve"
   id="svg2"
   sodipodi:version="0.32"
   inkscape:version="0.43"
   sodipodi:docname="fsf-logo.svg"
   sodipodi:docbase="/home/johns/graphics/logos/fsf"><metadata
   id="metadata61"><rdf:RDF><cc:Work
       rdf:about=""><dc:format>image/svg+xml</dc:format><dc:type
         rdf:resource="http://purl.org/dc/dcmitype/StillImage" /></cc:Work></rdf:RDF></metadata><defs
   id="defs59" /><sodipodi:namedview
   inkscape:cy="417.84947"
   inkscape:cx="305.25953"
   inkscape:zoom="0.43415836"
   inkscape:window-height="862"
   inkscape:window-width="1150"
   inkscape:pageshadow="2"
   inkscape:pageopacity="0.0"
   borderopacity="1.0"
   bordercolor="#666666"
   pagecolor="#ffffff"
   id="base"
   inkscape:window-x="0"
   inkscape:window-y="0"
   inkscape:current-layer="svg2" />
	<g
   id="Layer_x0020_1"
   style="fill-rule:nonzero;stroke:#000000;stroke-miterlimit:4"
   transform="matrix(0.999952,0,0,0.999952,2.36132e-5,1.868293e-2)">
		<g
   id="g5">
			<clipPath
   id="aiclp1"
   style="fill:none;stroke:none;">
				<path
   d="M 0,0 L 3390.47,0 L 3390.47,395.159 L 0,395.159 L 0,0 z "
   id="path8" />
			</clipPath>
			<g
   id="g10">
				<path
   style="fill:#b11107;stroke:none"
   d="M 86.4,193.619 L 0,193.619 L 0,128.819 L 86.4,128.819 L 86.4,78.419 L 72,78.419 L 72,42.419 L 86.4,42.419 L 86.4,28.019 L 122.4,28.019 L 122.4,42.419 L 338.4,42.419 C 398.068,11.152 468.102,5.081 528.635,4.336 C 595.448,3.478 598.91,4.229 626.165,4.424 C 741.533,5.283 749.485,5.792 765.768,3.223 C 772.332,2.142 779.531,6.483 780.1,9.718 C 781.423,16.89 766.474,25.196 761.858,26.659 C 747.507,31.214 721.815,33.275 651.929,37.307 L 650.265,37.341 C 539.276,47.821 477.012,73.988 460.922,81.476 C 397.281,111.179 390.411,125.007 398.685,133.831 C 407.453,143.189 456.997,122.605 481.292,115.667 C 529.574,101.893 558.027,115.084 576,128.819 L 619.2,128.819 L 619.2,121.619 L 648,121.619 L 648,128.819 L 892.8,128.819 L 892.8,193.619 L 648,193.619 L 648,244.02 L 856.8,244.02 L 856.8,280.02 L 648,280.02 L 648,395.219 L 619.2,395.219 L 619.2,280.02 L 604.8,280.02 L 604.8,244.02 L 619.2,244.02 L 619.2,193.619 L 604.8,193.619 C 604.551,219.088 597.091,242.438 589.952,252.057 C 523.32,341.562 221.084,353.077 127.459,354.605 C 103.834,355.01 86.923,351.047 86.4,344.818 M 253.773,127.251 C 257.812,110.263 269.098,92.953 282.619,78.547 L 124.419,79.178 L 123.845,129.016 L 252.962,129.54 L 253.572,130.573 M 751.955,11.815 C 750.31,10.996 666.288,15.679 661.564,15.25 C 656.841,14.82 606.225,15.545 578.474,14.82 C 545.624,13.961 511.15,14.854 479.065,17.826 C 446.645,20.832 413.151,30.923 385.455,42.517 C 359.107,53.548 332.851,67.422 312.24,83.74 C 301.685,92.094 293.661,101.373 286.476,112.726 C 278.317,125.607 274.384,140.322 279.819,152.661 C 285.678,165.945 298.781,171.829 315.031,174.346 C 329.785,176.64 347.881,175.419 359.475,177.781 C 366.359,179.183 377.658,181.035 378.369,187.658 C 379.013,193.669 368.163,203.721 363.125,206.121 C 353.678,210.631 341.01,206.766 328.772,204.189 C 320.337,202.418 307.819,198.311 300.001,194.741 C 294.722,192.327 289.074,190.421 288,190.421 C 287.572,190.421 122.187,189.993 122.4,190.421 C 122.4,193.212 122.187,327.981 122.4,334.421 C 122.635,341.533 147.178,339.426 162.376,337.95 C 191.737,335.077 222.278,331.508 251.908,327.215 C 268.85,324.759 286.805,321.578 303.866,318.196 C 330.919,312.83 363.267,305.314 376.718,301.019 C 410.36,290.285 445.142,280.838 476.918,267.097 C 491.204,260.924 508.265,253.141 519.86,245.196 C 532.218,236.728 545.409,225.014 550.992,212.991 C 557.191,199.639 559.089,183.563 552.709,168.976 C 546.698,155.235 530.165,142.998 515.78,140.635 C 507.593,139.293 501.18,138.488 493.236,139.132 C 484.098,139.87 468.545,143.211 458.239,144.5 C 441.297,146.62 421.39,149.633 404.777,147.077 C 393.613,145.358 376.007,130.974 382.233,114.227 C 386.796,101.948 404.475,89.347 415.083,82.451 C 440.848,65.703 487.197,51.083 526.945,41.656 C 560.438,33.713 607.458,27.271 647.179,26.842 C 651.009,26.802 686.892,24.393 690.549,24.265 C 750.881,22.118 752.813,12.242 751.955,11.813"
   id="path12" />
			</g>
		</g>
		<path
   style="fill:#b11107;stroke:none"
   d="M 1076.45,33.923 L 1076.45,79.87 L 1152.45,79.87 L 1152.45,109.07 L 1076.45,109.07 L 1076.45,198.387 L 1037.8,198.387 L 1037.8,3.436 L 1180.79,3.436 L 1180.79,33.923 L 1076.45,33.923"
   id="path14" />
		<path
   style="fill:#b11107;stroke:none"
   d="M 1341.92,198.387 L 1283.97,118.087 C 1278.13,118.087 1269.96,117.792 1259.47,117.195 L 1259.47,198.387 L 1219.54,198.387 L 1219.54,3.791 C 1221.71,3.791 1230.06,3.448 1244.6,2.757 C 1259.13,2.067 1270.86,1.718 1279.76,1.718 C 1334.94,1.718 1362.531,20.894 1362.531,59.232 C 1362.531,70.798 1358.72,81.319 1351.101,90.807 C 1343.471,100.293 1333.871,106.969 1322.281,110.821 L 1386.581,198.387 L 1341.921,198.387 L 1341.92,198.387 z M 1259.47,33.803 L 1259.47,88.15 C 1266.62,88.646 1272.08,88.887 1275.85,88.887 C 1292.03,88.887 1303.86,86.862 1311.35,82.803 C 1318.84,78.75 1322.59,70.779 1322.59,58.896 C 1322.59,49.302 1318.57,42.592 1310.53,38.781 C 1302.49,34.97 1289.84,33.065 1272.57,33.065 C 1268.4,33.065 1264.03,33.313 1259.469,33.803"
   id="path16" />
		<path
   style="fill:#b11107;stroke:none"
   d="M 1448.22,33.923 L 1448.22,79.87 L 1518.22,79.87 L 1518.22,109.07 L 1448.22,109.07 L 1448.22,167.898 L 1546.56,167.898 L 1546.56,198.387 L 1409.58,198.387 L 1409.58,3.436 L 1546.56,3.436 L 1546.56,33.923 L 1448.22,33.923"
   id="path18" />
		<path
   style="fill:#b11107;stroke:none"
   d="M 1625.52,33.923 L 1625.52,79.87 L 1695.51,79.87 L 1695.51,109.07 L 1625.52,109.07 L 1625.52,167.898 L 1723.84,167.898 L 1723.84,198.387 L 1586.87,198.387 L 1586.87,3.436 L 1723.84,3.436 L 1723.84,33.923 L 1625.52,33.923"
   id="path20" />
		<path
   style="fill:#b11107;stroke:none"
   d="M 1849.89,187.732 L 1864.13,156.734 C 1879.36,166.47 1894.35,171.334 1909.09,171.334 C 1931.74,171.334 1943.07,164.209 1943.07,149.944 C 1943.07,143.315 1940.389,136.975 1935.049,130.936 C 1929.699,124.898 1918.699,118.114 1902.029,110.586 C 1885.348,103.058 1874.119,96.872 1868.339,92.015 C 1862.56,87.157 1858.099,81.386 1854.989,74.697 C 1851.869,68.007 1850.319,60.647 1850.319,52.623 C 1850.319,37.46 1856.459,24.899 1868.768,14.942 C 1881.07,4.985 1896.85,0 1916.12,0 C 1941.22,0 1959.64,4.213 1971.41,12.634 L 1959.71,42.512 C 1946.2,33.923 1931.93,29.629 1916.939,29.629 C 1908.06,29.629 1901.179,31.736 1896.29,35.943 C 1891.41,40.156 1888.96,45.625 1888.96,52.354 C 1888.96,63.546 1902.72,75.187 1930.24,87.264 C 1944.73,93.691 1955.189,99.569 1961.599,104.903 C 1968.019,110.237 1972.9,116.484 1976.259,123.65 C 1979.61,130.815 1981.289,138.793 1981.289,147.582 C 1981.289,163.391 1974.349,176.387 1960.469,186.559 C 1946.599,196.736 1927.999,201.822 1904.689,201.822 C 1884.439,201.822 1866.179,197.128 1849.889,187.733"
   id="path22" />
		<path
   style="fill:#b11107;stroke:none"
   d="M 2009.68,99.354 C 2009.68,71.578 2018.151,48.074 2035.111,28.844 C 2052.061,9.614 2074.72,0 2103.09,0 C 2134.33,0 2158.2,8.703 2174.71,26.1 C 2191.21,43.504 2199.481,67.92 2199.481,99.354 C 2199.481,130.795 2190.85,155.728 2173.6,174.165 C 2156.35,192.604 2131.861,201.822 2100.13,201.822 C 2070.97,201.822 2048.6,192.678 2033.03,174.387 C 2017.469,156.098 2009.679,131.091 2009.679,99.354 L 2009.68,99.354 z M 2049.62,99.495 C 2049.62,122.254 2053.92,139.92 2062.54,152.488 C 2071.15,165.054 2083.67,171.334 2100.13,171.334 C 2119.44,171.334 2134.16,165.201 2144.311,152.93 C 2154.46,140.666 2159.55,122.851 2159.55,99.495 C 2159.55,53.777 2140.72,30.917 2103.09,30.917 C 2085.861,30.917 2072.63,37.104 2063.43,49.476 C 2054.22,61.848 2049.62,78.521 2049.62,99.495"
   id="path24" />
		<path
   style="fill:#b11107;stroke:none"
   d="M 2276.689,33.923 L 2276.689,79.87 L 2352.7,79.87 L 2352.7,109.07 L 2276.689,109.07 L 2276.689,198.387 L 2238.049,198.387 L 2238.049,3.436 L 2381.039,3.436 L 2381.039,33.923 L 2276.688,33.923"
   id="path26" />
		<path
   style="fill:#b11107;stroke:none"
   d="M 2512.8,33.923 L 2512.8,198.387 L 2474.151,198.387 L 2474.151,33.923 L 2405.02,33.923 L 2405.02,3.436 L 2584.94,3.436 L 2584.94,33.923 L 2512.8,33.923"
   id="path28" />
		<path
   style="fill:#b11107;stroke:none"
   d="M 2794,200.964 L 2778.11,200.964 L 2730.87,78.152 L 2684.93,200.964 L 2669.04,200.964 L 2597.76,3.436 L 2638.12,3.436 L 2678.7,121.094 L 2722.71,3.436 L 2739.46,3.436 L 2783.481,121.094 L 2824.061,3.436 L 2864.42,3.436 L 2794,200.964"
   id="path30" />
		<path
   style="fill:#b11107;stroke:none"
   d="M 2997.39,198.387 L 2981.6,158.881 L 2907.281,158.881 L 2892.18,198.387 L 2849.241,198.387 L 2935.981,0.858 L 2952.731,0.858 L 3039.901,198.387 L 2997.39,198.387 L 2997.39,198.387 z M 2944.36,60.546 L 2918.23,132.258 L 2970.379,132.258 L 2944.359,60.546"
   id="path32" />
		<path
   style="fill:#b11107;stroke:none"
   d="M 3185.83,198.387 L 3127.89,118.087 C 3122.04,118.087 3113.88,117.792 3103.39,117.195 L 3103.39,198.387 L 3063.451,198.387 L 3063.451,3.791 C 3065.621,3.791 3073.971,3.448 3088.52,2.757 C 3103.05,2.067 3114.77,1.718 3123.68,1.718 C 3178.85,1.718 3206.451,20.894 3206.451,59.232 C 3206.451,70.798 3202.64,81.319 3195.011,90.807 C 3187.391,100.293 3177.782,106.969 3166.201,110.821 L 3230.491,198.387 L 3185.831,198.387 L 3185.83,198.387 z M 3103.39,33.803 L 3103.39,88.15 C 3110.52,88.646 3115.991,88.887 3119.76,88.887 C 3135.94,88.887 3147.781,86.862 3155.27,82.803 C 3162.75,78.75 3166.51,70.779 3166.51,58.896 C 3166.51,49.302 3162.481,42.592 3154.45,38.781 C 3146.41,34.97 3133.75,33.065 3116.48,33.065 C 3112.31,33.065 3107.95,33.313 3103.389,33.803"
   id="path34" />
		<path
   style="fill:#b11107;stroke:none"
   d="M 3292.14,33.923 L 3292.14,79.87 L 3362.13,79.87 L 3362.13,109.07 L 3292.14,109.07 L 3292.14,167.898 L 3390.47,167.898 L 3390.47,198.387 L 3253.49,198.387 L 3253.49,3.436 L 3390.469,3.436 L 3390.469,33.923 L 3292.139,33.923"
   id="path36" />
		<path
   style="fill:#b11107;stroke:none"
   d="M 1105.12,288.797 L 1105.12,319.93 L 1152.79,319.93 L 1152.79,333.025 L 1105.12,333.025 L 1105.12,387.347 L 1086.66,387.347 L 1086.66,274.841 L 1170.4,274.841 L 1170.4,288.797 L 1105.12,288.797"
   id="path38" />
		<path
   style="fill:#b11107;stroke:none"
   d="M 1314.58,330.127 C 1314.58,313.783 1319.51,300.148 1329.35,289.172 C 1339.19,278.194 1352.47,272.693 1369.2,272.693 C 1388.02,272.693 1402.44,277.765 1412.47,287.856 C 1422.5,297.975 1427.52,312.064 1427.52,330.127 C 1427.52,348.592 1422.49,363.084 1412.43,373.578 C 1402.37,384.045 1387.96,389.277 1369.201,389.277 C 1352.101,389.277 1338.721,383.75 1329.071,372.691 C 1319.411,361.608 1314.581,347.437 1314.581,330.127 L 1314.58,330.127 z M 1334.12,330.101 C 1334.12,343.063 1337.18,353.879 1343.3,362.548 C 1349.43,371.217 1358.06,375.537 1369.2,375.537 C 1381.82,375.537 1391.44,371.564 1398.05,363.595 C 1404.67,355.65 1407.98,344.485 1407.98,330.101 C 1407.98,301.008 1395.06,286.435 1369.2,286.435 C 1357.76,286.435 1349.05,290.354 1343.08,298.164 C 1337.11,305.945 1334.12,316.602 1334.12,330.101"
   id="path40" />
		<path
   style="fill:#b11107;stroke:none"
   d="M 1583.65,274.841 L 1602.12,274.841 L 1602.12,351.92 C 1602.12,358.79 1604.74,364.426 1610,368.882 C 1615.24,373.336 1622.19,375.537 1630.84,375.537 C 1639.98,375.537 1647.18,373.391 1652.43,369.096 C 1657.68,364.828 1660.3,358.979 1660.3,351.545 L 1660.3,274.841 L 1678.77,274.841 L 1678.77,353.182 C 1678.77,364.536 1674.5,373.391 1665.95,379.752 C 1657.41,386.111 1645.77,389.277 1631.03,389.277 C 1615.85,389.277 1604.16,386.166 1595.96,379.938 C 1587.75,373.712 1583.65,364.749 1583.65,353.074 L 1583.65,274.841"
   id="path42" />
		<path
   style="fill:#b11107;stroke:none"
   d="M 1929.07,388.849 L 1859.08,306.618 L 1859.08,387.347 L 1841.47,387.347 L 1841.47,274.841 L 1848.991,274.841 L 1917.051,352.563 L 1917.051,274.841 L 1934.652,274.841 L 1934.652,388.849 L 1929.072,388.849"
   id="path44" />
		<path
   style="fill:#b11107;stroke:none"
   d="M 2124.68,387.347 L 2097.33,387.347 L 2097.33,274.733 C 2114.769,274.251 2125.92,273.982 2130.8,273.982 C 2149.77,273.982 2164.79,278.759 2175.85,288.312 C 2186.92,297.868 2192.451,310.617 2192.451,326.558 C 2192.451,367.082 2169.85,387.346 2124.68,387.346 L 2124.68,387.347 z M 2115.8,288.555 L 2115.8,372.881 C 2119.93,373.362 2125.071,373.605 2131.19,373.605 C 2144.17,373.605 2154.361,369.581 2161.791,361.501 C 2169.19,353.424 2172.911,342.204 2172.911,327.846 C 2172.911,301.116 2158.471,287.723 2129.611,287.723 C 2127.881,287.723 2123.27,288.018 2115.8,288.555"
   id="path46" />
		<path
   style="fill:#b11107;stroke:none"
   d="M 2425.55,387.347 L 2416.21,363.728 L 2365.78,363.728 L 2355.769,387.347 L 2334.939,387.347 L 2390.12,273.338 L 2395.06,273.338 L 2446.16,387.347 L 2425.55,387.347 z M 2391.73,302.753 L 2370.689,352.35 L 2410.939,352.35 L 2391.73,302.753"
   id="path48" />
		<path
   style="fill:#b11107;stroke:none"
   d="M 2626.11,288.797 L 2626.11,387.347 L 2607.65,387.347 L 2607.65,288.797 L 2564.49,288.797 L 2564.49,274.841 L 2671.2,274.841 L 2671.2,288.797 L 2626.11,288.797"
   id="path50" />
		<path
   style="fill:#b11107;stroke:none"
   d="M 2824.87,274.841 L 2843.34,274.841 L 2843.34,387.347 L 2824.87,387.347 L 2824.87,274.841 z "
   id="path52" />
		<path
   style="fill:#b11107;stroke:none"
   d="M 3002.78,330.127 C 3002.78,313.783 3007.71,300.148 3017.54,289.172 C 3027.39,278.194 3040.67,272.693 3057.4,272.693 C 3076.21,272.693 3090.639,277.765 3100.679,287.856 C 3110.7,297.975 3115.719,312.064 3115.719,330.127 C 3115.719,348.592 3110.689,363.084 3100.619,373.578 C 3090.569,384.045 3076.159,389.277 3057.399,389.277 C 3040.298,389.277 3026.919,383.75 3017.258,372.691 C 3007.609,361.608 3002.779,347.437 3002.779,330.127 L 3002.78,330.127 z M 3022.32,330.101 C 3022.32,343.063 3025.38,353.879 3031.5,362.548 C 3037.63,371.217 3046.26,375.537 3057.4,375.537 C 3070.009,375.537 3079.629,371.564 3086.25,363.595 C 3092.86,355.65 3096.18,344.485 3096.18,330.101 C 3096.18,301.008 3083.26,286.435 3057.401,286.435 C 3045.951,286.435 3037.241,290.354 3031.27,298.164 C 3025.3,305.945 3022.321,316.602 3022.321,330.101"
   id="path54" />
		<path
   style="fill:#b11107;stroke:none"
   d="M 3359.45,388.849 L 3289.45,306.618 L 3289.45,387.347 L 3271.849,387.347 L 3271.849,274.841 L 3279.36,274.841 L 3347.42,352.563 L 3347.42,274.841 L 3365.03,274.841 L 3365.03,388.849 L 3359.45,388.849"
   id="path56" />
	</g>
</svg>
